public/brands/apollo-word.svg

<svg width="809" height="238" viewBox="0 0 809 238" xmlns="http://www.w3.org/2000/svg"><title>apollo-word</title><g fill="#FFF" fill-rule="evenodd"><path d="M131.58 67.38h-24.311l-35.102 91.097h21.99l5.737-15.432h33.166l-6.004-17.074h-21.839l14.205-39.198 25.27 71.704h21.989zM500.882 158.477V67.38h19.528v74.024h38.517v17.072h-58.045zM613.445 158.477V67.38h19.531v74.024h38.516v17.072h-58.047zM392.715 83.705c16.152 0 29.293 13.14 29.293 29.292 0 16.151-13.141 29.292-29.293 29.292-16.151 0-29.292-13.141-29.292-29.292-.001-16.155 13.14-29.292 29.292-29.292zm0-17.825c-26.022 0-47.118 21.096-47.118 47.117 0 26.023 21.096 47.12 47.118 47.12 26.021 0 47.119-21.097 47.119-47.12 0-26.023-21.096-47.117-47.119-47.117zM761.277 83.705c16.154 0 29.295 13.14 29.295 29.292 0 16.151-13.141 29.292-29.295 29.292-16.152 0-29.291-13.141-29.291-29.292 0-16.155 13.14-29.292 29.291-29.292zm0-17.825c-26.021 0-47.119 21.096-47.119 47.117 0 26.023 21.101 47.12 47.119 47.12 26.023 0 47.121-21.097 47.121-47.12 0-26.023-21.096-47.117-47.121-47.117zM265.979 67.38h-42.478v91.099h19.396v-31.353h23.082c16.189 0 29.314-13.685 29.314-29.874 0-16.191-13.125-29.872-29.314-29.872zm0 41.918h-23.082V85.209h23.082c6.336 0 11.486 5.711 11.486 12.045 0 6.335-5.15 12.044-11.486 12.044z"/><path d="M206.754 186.124a5.002 5.002 0 0 0-4.088 2.118s-4.375 4.991-6.732 7.354c-9.979 9.979-21.6 17.812-34.533 23.281-13.387 5.663-27.611 8.534-42.281 8.534-14.672 0-28.896-2.871-42.281-8.534-12.936-5.472-24.555-13.305-34.532-23.281-9.979-9.981-17.813-21.602-23.285-34.534-5.66-13.39-8.533-27.613-8.533-42.282 0-14.669 2.873-28.895 8.533-42.281 5.472-12.936 13.306-24.554 23.285-34.533 9.979-9.979 21.598-17.812 34.532-23.285 13.386-5.661 27.609-8.532 42.281-8.532 14.67 0 28.896 2.871 42.281 8.532a107.992 107.992 0 0 1 26.041 15.641 12.31 12.31 0 0 0-.658 3.963c0 6.77 5.488 12.258 12.256 12.258 6.771 0 12.258-5.488 12.258-12.258 0-6.771-5.487-12.257-12.258-12.257a12.2 12.2 0 0 0-4.742.953C173.831 10.199 147.653.123 119.12.123 53.585.123.46 53.248.46 118.783s53.125 118.661 118.66 118.661c36.658 0 69.42-16.636 91.185-42.758a5.017 5.017 0 0 0-3.551-8.562z"/></g></svg>

<?xml version="1.0" encoding="UTF-8"?>
<svg width="809px" height="238px" viewBox="0 0 809 238" version="1.1" xmlns="http://www.w3.org/2000/svg" xmlns:xlink="http://www.w3.org/1999/xlink">
    <!-- Generator: Sketch 41 (35326) - http://www.bohemiancoding.com/sketch -->
    <title>apollo-word</title>
    <desc>Created with Sketch.</desc>
    <defs></defs>
    <g id="Page-1" stroke="none" stroke-width="1" fill="none" fill-rule="evenodd">
        <g id="apollo-word" fill="#FFFFFF">
            <polygon id="Shape" points="131.58 67.38 107.269 67.38 72.167 158.477 94.157 158.477 99.894 143.045 133.06 143.045 127.056 125.971 105.217 125.971 119.422 86.773 144.692 158.477 166.681 158.477"></polygon>
            <polygon id="Shape" points="500.882 158.477 500.882 67.38 520.41 67.38 520.41 141.404 558.927 141.404 558.927 158.476 500.882 158.476"></polygon>
            <polygon id="Shape" points="613.445 158.477 613.445 67.38 632.976 67.38 632.976 141.404 671.492 141.404 671.492 158.476 613.445 158.476"></polygon>
            <path d="M392.715,83.705 C408.867,83.705 422.008,96.845 422.008,112.997 C422.008,129.148 408.867,142.289 392.715,142.289 C376.564,142.289 363.423,129.148 363.423,112.997 C363.422,96.842 376.563,83.705 392.715,83.705 L392.715,83.705 Z M392.715,65.88 C366.693,65.88 345.597,86.976 345.597,112.997 C345.597,139.02 366.693,160.117 392.715,160.117 C418.736,160.117 439.834,139.02 439.834,112.997 C439.834,86.974 418.738,65.88 392.715,65.88 L392.715,65.88 Z" id="Shape"></path>
            <path d="M761.277,83.705 C777.431,83.705 790.572,96.845 790.572,112.997 C790.572,129.148 777.431,142.289 761.277,142.289 C745.125,142.289 731.986,129.148 731.986,112.997 C731.986,96.842 745.126,83.705 761.277,83.705 L761.277,83.705 Z M761.277,65.88 C735.256,65.88 714.158,86.976 714.158,112.997 C714.158,139.02 735.259,160.117 761.277,160.117 C787.3,160.117 808.398,139.02 808.398,112.997 C808.398,86.974 787.302,65.88 761.277,65.88 L761.277,65.88 Z" id="Shape"></path>
            <path d="M265.979,67.38 L242.897,67.38 L239.585,67.38 L223.501,67.38 L223.501,158.479 L242.897,158.479 L242.897,127.126 L265.979,127.126 C282.168,127.126 295.293,113.441 295.293,97.252 C295.293,81.061 282.168,67.38 265.979,67.38 Z M265.979,109.298 L242.897,109.298 L242.897,85.209 L265.979,85.209 C272.315,85.209 277.465,90.92 277.465,97.254 C277.465,103.589 272.315,109.298 265.979,109.298 Z" id="Shape"></path>
            <path d="M206.754,186.124 C205.066,186.124 203.576,186.96 202.666,188.242 C202.666,188.242 198.291,193.233 195.934,195.596 C185.955,205.575 174.334,213.408 161.401,218.877 C148.014,224.54 133.79,227.411 119.12,227.411 C104.448,227.411 90.224,224.54 76.839,218.877 C63.903,213.405 52.284,205.572 42.307,195.596 C32.328,185.615 24.494,173.994 19.022,161.062 C13.362,147.672 10.489,133.449 10.489,118.78 C10.489,104.111 13.362,89.885 19.022,76.499 C24.494,63.563 32.328,51.945 42.307,41.966 C52.286,31.987 63.905,24.154 76.839,18.681 C90.225,13.02 104.448,10.149 119.12,10.149 C133.79,10.149 148.016,13.02 161.401,18.681 C170.823,22.667 179.542,27.911 187.442,34.322 C187.02,35.565 186.784,36.898 186.784,38.285 C186.784,45.055 192.272,50.543 199.04,50.543 C205.811,50.543 211.298,45.055 211.298,38.285 C211.298,31.514 205.811,26.028 199.04,26.028 C197.36,26.028 195.757,26.367 194.298,26.981 C173.831,10.199 147.653,0.123 119.12,0.123 C53.585,0.123 0.46,53.248 0.46,118.783 C0.46,184.318 53.585,237.444 119.12,237.444 C155.778,237.444 188.54,220.808 210.305,194.686 C211.21,193.779 211.774,192.526 211.774,191.143 C211.772,188.367 209.528,186.124 206.754,186.124 Z" id="Shape"></path>
        </g>
    </g>
</svg>
